X: 272
M: 6/8
L: 1/8
K: D
|:\
d2g faf | e2f gec | d2g faf | d2g faf |\
gag faf | e2f gec | dcB AFA | D2A F2A |]


